svgs/solid/wine-glass-crack.svg

<svg xmlns="http://www.w3.org/2000/svg" viewBox="0 0 320 512"><!--! Font Awesome Pro 6.0.0-alpha3 by @fontawesome - https://fontawesome.com License - https://fontawesome.com/license (Commercial License) --><path d="M272 504c0 4.375-3.625 8-8.002 8H55.98c-4.377 0-8.002-3.625-8.002-8c0-22.12 17.88-40 40.01-40h40.01v-117.1c-68.52-16-118-79.99-111.4-154.2L32.47 14.5C33.22 6.25 40.1 0 48.23 0h85.6l32.88 48.25l-85.52 56L202.7 224L153.2 119.8l85.52-56L208.2 0h63.56c8.127 0 15 6.25 15.75 14.5l15.88 178.1c6.625 74.25-42.88 138.2-111.4 154.1V464h40.01C254.1 464 272 481.9 272 504z"/></svg>

<svg xmlns="http://www.w3.org/2000/svg" viewBox="0 0 320 512"><!-- Font Awesome Pro 6.0.0-alpha2 by @fontawesome - https://fontawesome.com License - https://fontawesome.com/license (Commercial License) --><path d="M272.024 504C272.024 508.375 268.399 512 264.022 512H55.979C51.602 512 47.977 508.375 47.977 504C47.977 481.875 65.856 464 87.985 464H127.995V346.875C59.479 330.875 9.969 266.875 16.594 192.625L32.473 14.5C33.223 6.25 40.1 0 48.227 0H133.827L166.71 48.25L81.19 104.25L202.717 224L153.206 119.75L238.725 63.75L208.217 0H271.774C279.901 0 286.778 6.25 287.528 14.5L303.407 192.625C310.032 266.875 260.522 330.875 192.006 346.75V464H232.016C254.145 464 272.024 481.875 272.024 504Z"/></svg>
